packages/icons/svg/Fill/undo.svg

<svg fill="none" height="24" viewBox="0 0 24 24" width="24" xmlns="http://www.w3.org/2000/svg"><path clip-rule="evenodd" d="m20.2207 21c-.461 0-.862-.315-.972-.763-.889-3.649-4.02-6.285-7.795-6.684v1.121c0 .706-.419 1.335-1.092 1.64-.73203.333-1.58404.213-2.17704-.304l-5.067-4.424c-.392-.344-.618-.831-.618-1.336 0-.50502.226-.99202.618-1.33602l5.067-4.424c.593-.517 1.44501-.637 2.17704-.304.673.305 1.092.934 1.092 1.64v1.218c5.624.493 10.046 5.10602 10.046 10.70602 0 .81-.103 1.646-.307 2.486-.109.449-.51.764-.972.764" fill="#6b7280" fill-rule="evenodd"/></svg>

<svg width="24" height="24" viewBox="0 0 24 24" fill="none" xmlns="http://www.w3.org/2000/svg">
<g id="Icon/Fill/undo">
<path id="Mask" fill-rule="evenodd" clip-rule="evenodd" d="M20.2208 21C19.7598 21 19.3588 20.685 19.2488 20.237C18.3598 16.588 15.2288 13.952 11.4538 13.553V14.674C11.4538 15.38 11.0348 16.009 10.3618 16.314C9.62976 16.647 8.77776 16.527 8.18476 16.01L3.11776 11.586C2.72576 11.242 2.49976 10.755 2.49976 10.25C2.49976 9.745 2.72576 9.258 3.11776 8.914L8.18476 4.49C8.77776 3.973 9.62976 3.853 10.3618 4.186C11.0348 4.491 11.4538 5.12 11.4538 5.826V7.044C17.0778 7.537 21.4998 12.15 21.4998 17.75C21.4998 18.56 21.3968 19.396 21.1928 20.236C21.0838 20.685 20.6828 21 20.2208 21Z" fill="#000000"/>
</g>
</svg>
